src/assets/duotone/ArrangeCircle2.svg

<?xml version="1.0" encoding="UTF-8"?>
<svg width="24" height="24" viewBox="0 0 24 24" xmlns="http://www.w3.org/2000/svg">
 <path d="m12 22c5.5228 0 10-4.4772 10-10 0-5.5228-4.4772-10-10-10-5.5228 0-10 4.4772-10 10 0 5.5228 4.4772 10 10 10z" opacity=".4"/>
 <path d="m17.85 13.53c-0.08-0.18-0.2201-0.33-0.4101-0.41-0.09-0.04-0.19-0.06-0.29-0.06h-10.31c-0.41 0-0.75 0.34-0.75 0.75s0.34 0.75 0.75 0.75h8.5l-1.76 1.76c-0.29 0.29-0.29 0.77 0 1.06 0.15 0.15 0.34 0.22 0.53 0.22s0.3801-0.07 0.5301-0.22l3.0399-3.04c0.07-0.07 0.12-0.15 0.16-0.24 0.08-0.18 0.0801-0.39 0.0101-0.57z"/>
 <path d="m17.15 9.4301h-8.5l1.7601-1.76c0.29-0.29 0.29-0.77003 0-1.06s-0.77004-0.29-1.06 0l-3.04 3.04c-0.07 0.07-0.12001 0.15002-0.16001 0.24002-0.08 0.17999-0.08 0.38999 0 0.56999s0.22001 0.33 0.41001 0.41c0.09 0.04 0.19001 0.06 0.29001 0.06h10.31c0.41 0 0.75-0.34 0.75-0.75 0-0.41001-0.3401-0.75001-0.7601-0.75001z"/>
</svg>

<svg width="24" height="24" viewBox="0 0 24 24"  xmlns="http://www.w3.org/2000/svg">
<path opacity="0.4" d="M12 22C17.5228 22 22 17.5228 22 12C22 6.47715 17.5228 2 12 2C6.47715 2 2 6.47715 2 12C2 17.5228 6.47715 22 12 22Z" />
<path d="M17.8499 13.5301C17.7699 13.3501 17.6298 13.2001 17.4398 13.1201C17.3498 13.0801 17.2498 13.0601 17.1498 13.0601H6.83984C6.42984 13.0601 6.08984 13.4001 6.08984 13.8101C6.08984 14.2201 6.42984 14.5601 6.83984 14.5601H15.3398L13.5798 16.3201C13.2898 16.6101 13.2898 17.0901 13.5798 17.3801C13.7298 17.5301 13.9198 17.6001 14.1098 17.6001C14.2998 17.6001 14.4899 17.5301 14.6399 17.3801L17.6798 14.3401C17.7498 14.2701 17.7998 14.1901 17.8398 14.1001C17.9198 13.9201 17.9199 13.7101 17.8499 13.5301Z" />
<path d="M17.1498 9.43009H8.64984L10.4099 7.67011C10.6999 7.38011 10.6999 6.90008 10.4099 6.61008C10.1199 6.32008 9.63986 6.32008 9.34986 6.61008L6.30985 9.65009C6.23985 9.72009 6.18984 9.80011 6.14984 9.89011C6.06984 10.0701 6.06984 10.2801 6.14984 10.4601C6.22984 10.6401 6.36985 10.7901 6.55985 10.8701C6.64985 10.9101 6.74986 10.9301 6.84986 10.9301H17.1599C17.5699 10.9301 17.9099 10.5901 17.9099 10.1801C17.9099 9.77009 17.5698 9.43009 17.1498 9.43009Z" />
</svg>
